X:1
T:Minuet in G Major
T:Bach Jazz Arrangement 
T:IMMusic / Ric Iannone 
%%score { 1 | 2 }
L:1/8
M:3/4
K:G
V:1 treble nm="Piano" snm="Pno."
V:2 bass 
V:1
"^\nSwing 8ths\n\n" GB dg (3fga | (3gag G2 G2 | Bd dg fa | g2 G2 G2 | e2 e^d eg | d2 d^c dg | %6
 c2 (3edc (3BAG | (3FED (3CDE (3FGA | GB dg (3fga | (3gag G2 G2 | GB dg [Af][ca] | [Bg]2 G2 G2 | %12
 e3 d (3cBA | d3 c (3BAG | (3ABc D2 F2 | G6 | Gg z g fa | g2 G2 G2 | Gg z g fa | (3gag G2 G2 | %20
 ee ff gg | dd ff gg | c2 dc Bc | A z [F_Bd]4 | Bd Gg fa | g2 G2 G2 | dB dg fa | (3gag G2 G2 | %28
 [ce]2 [Bd][Ac] [GB][FA] | [Bd]2 [Ac][GB] [FA][EG] | (3ABc D2 [CF]2 | [B,G]6 | G2 BA GF | %33
 (3GF=F E2 E2 | eg z f z e | f2 B2 B2 | g2 ef ge | f2 B2 e2 | fa (3B^cd ^d2 | e3 ^d ef | g2 gf ed | %41
 e2 ed cB | c2 cB AG | F2 A2 D2 | AD AD (3FGA | BD BD (3GAB | c2 dc Bc | A6 | GB dg (3fga | %49
 (3gag G2 G2 | Bd dg fa | g2 G2 G2 | e2 dc BA | d2 cB AG | (3ABc D2 [CF]2 | [B,G]6 | BG BG AF | %57
 (3GF=F (3EF^F G2 | eg z f z e | f2 B2 B2 | (3g2 e2 f2 g2 | f2 B2 e2 | fa (3B^cd ^d2 | e3 ^d ef | %64
 g4 (3fed | e4 (3dcB | c4 (3BAG | F2 A2 D2 | A2 A2 Ac | B2 B2 Bd | c2 dc Bc | A6 | GB dg (3fga | %73
 (3gag G2 G2 | Bd dg fa | g2 G2 G2 | e2 dc BA | d2 cB AG | (3ABc D2 [CF]2 | [B,G]6 |] %80
V:2
 [G,B,D]4 [F,A,C^D]2 | [G,B,D]6 | [G,B,D]4 [^D,F,A,C]2 | [D,E,G,B,]6 | C2 z2 C,2 | B,2 z2 B,,2 | %6
 A,2 F,2 G,2 | [D,,D,]6 | [G,B,D]4 [F,A,C^D]2 | [G,B,D]6 | [G,B,D]4 [^D,F,A,C]2 | [D,E,G,B,]6 | %12
 C4 C,2 | B,4 B,,2 | C,3 ^C, D,D,, | G,,6 | [G,B,D]2 z2 [F,A,C^D]2 | [G,B,DE]6 | %18
 [G,B,DE]2 z z [A,C^DF]2 | [G,B,DE]6 | C4 C,2 | B,4 B,,2 | A,2 F,2 G,2 | D, z [F,C]4 | %24
 [G,B,]3 [A,C]- [A,C]2 | [B,D]6 | [G,B,]3 [A,C]- [A,C]2 | [B,D]6 | C4 C,2 | B,4 B,,2 | %30
 C,2 D,2 D,,2 | G,,6 | [E,G,]6 | [G,B,]6 | [E,G,]6 | [^D,A,]6 | [E,G,]6 | [^D,A,]4 [E,G,]2 | %38
 A,2 B,2 B,,2 | [E,G,]6 | E,,4 E,2 | C,4 C2 | A,,4 A,2 | D,4 D,,2 | F,6 | G,6 | A,2 F,2 G,2 | %47
 [D,F,]6 | [G,B,]3 [A,C]- [A,C]2 | [B,D]6 | [G,B,]3 [A,C]- [A,C]2 | [B,D]6 | C4 C,2 | B,4 B,,2 | %54
 C,2 D,2 D,,2 | G,,6 | z [D,E,G,B,]- [D,E,G,B,]2 [C,^D,F,A,]2 | [B,,D,E,G,]6 | [E,G,B,]6 | %59
 [^D,A,]6 | [E,G,]6 | [^D,A,]4 [E,G,]2 | A,2 B,2 B,,2 | [E,G,]6 | z [E,G,B,]- [E,G,B,]4 | %65
 z [E,G,C]- [E,G,C]4 | z [E,A,C]- [E,A,C]4 | D2 A,2 D,2 | F, D,2 A,2 F, | G, D,2 B,2 G, | A,4 G,2 | %71
 z ^C DA, F,D, | [G,B,]3 [A,C]- [A,C]2 | [B,D]6 | [G,B,]3 [A,C]- [A,C]2 | [B,D]6 | C4 C,2 | %77
 B,4 B,,2 | C,2 D,2 D,,2 | G,,6 |] %80

